svgs/google_phone.svg

<svg width="24" height="24" viewBox="0 0 24 24" fill="none" xmlns="http://www.w3.org/2000/svg">
<path d="M6.27682 4.37938C6.09745 3.60062 6.5187 2.78 7.13933 2.33812L7.39183 2.20125C8.24433 1.74875 9.29683 2.08562 9.74933 2.94812L11.3381 5.97938C11.7906 6.84188 11.475 7.92563 10.6118 8.38876C10.6118 8.38876 8.8862 9.29376 7.97058 9.78876C7.18183 7.47313 6.84495 6.34751 6.28683 4.41125C6.27683 4.40063 6.27682 4.39 6.27682 4.37938Z" fill="#FFF1C0"/>
<path d="M17.7049 15.1656L19.9674 17.7125C20.6093 18.4382 20.5668 19.5538 19.8512 20.2275L19.788 20.2907C19.7618 20.3116 19.7355 20.33 19.7093 20.3485C19.683 20.3669 19.6568 20.3853 19.6305 20.4063C19.0093 20.8375 18.1043 20.9638 17.4418 20.5325C17.4365 20.5272 17.4312 20.5246 17.4259 20.5219C17.4205 20.5192 17.4152 20.5166 17.4099 20.5113C15.8105 19.3119 14.8743 18.6069 13.0012 17.0706C13.7793 16.3656 15.2105 15.0288 15.2105 15.0288C15.9368 14.3763 17.0524 14.4294 17.7049 15.1656Z" fill="#FFF1C0"/>
<path d="M12.152 18.4537C10.7291 17.128 9.32507 15.7259 8.14034 13.8038C7.49176 12.7516 6.99955 11.7035 6.53203 10.6778L4.76561 4.69922L4.76392 4.71355L4.76182 4.68925C2.89086 7.68128 3.22751 11.9816 5.74561 16.0668C8.47368 20.4928 13.1104 22.7528 16.8733 21.7839C16.8691 21.7824 16.8649 21.7809 16.8606 21.7794L12.152 18.4537Z" fill="#FFF1C0"/>
</svg>

<svg xmlns="http://www.w3.org/2000/svg" width="24" height="24" fill="none" viewBox="0 0 24 24"><path fill="#FFF1C0" d="M6.277 4.38c-.18-.78.242-1.6.862-2.042l.253-.137a1.74 1.74 0 0 1 2.357.747l1.59 3.031c.452.863.136 1.947-.727 2.41 0 0-1.726.905-2.641 1.4A98.857 98.857 0 0 1 6.287 4.41c-.01-.01-.01-.021-.01-.032m11.428 10.788 2.262 2.546a1.81 1.81 0 0 1-.116 2.515l-.063.064-.079.058a1.519 1.519 0 0 0-.078.057c-.622.431-1.527.558-2.19.127-.005-.006-.01-.008-.015-.011-.005-.003-.01-.005-.016-.01-1.6-1.2-2.536-1.905-4.409-3.441.778-.705 2.21-2.042 2.21-2.042a1.757 1.757 0 0 1 2.494.137"/><path fill="#FFF1C0" d="M12.152 18.454c-1.423-1.326-2.827-2.728-4.012-4.65-.648-1.052-1.14-2.1-1.608-3.126L4.766 4.699l-.002.015-.002-.025c-1.871 2.992-1.534 7.293.984 11.378 2.728 4.426 7.364 6.686 11.127 5.717l-.012-.005-4.709-3.325"/></svg>
